!!!OTL@@DE: Mei Schatzerl
!!!COM: Weber, Carl Maria von
!!!ODT: 1818
!!!OMD: Sehr lebendig
!!!ONB: Volkslied (1808). Str. 2 neu hinzu gedichtet (1835)
!!!LDT: 1808, 1835
!!!OCL: Erk, Ludwig
!!!GCO: Deutscher Liederschatz, Band 1
**kern	**kern	**kern
*staff3	*staff2	*staff1
*Ipiano	*Ipiano	*Ivox
*clefF4	*clefG2	*clefG2
*k[f#c#]	*k[f#c#]	*k[f#c#]
*D:	*D:	*D:
*M3/8	*M3/8	*M3/8
*MM72	*MM72	*MM72
8r	(16f#/LL	16f#/LL
.	16g/JJ	16g/JJ
=1	=1	=1
8DD/ 8D/L	8a/L)	8a/
8DD/ 8D/	8A/ 8d/ 8f#/	8f#/
8DD/ 8D/J	8A/ 8d/ 8f#/J	16f#\LL
.	.	16ff#\JJ
=2	=2	=2
4DD;/ 4D;/	4A;/ 4d;/ 4f#;/	4dd;\
8r	8r	16f#/
.	.	16b\
=3	=3	=3
8AA/L	8G/ 8c#/ 8e/L	16b/LL
.	.	16c#/JJ
8AA/	8G/ 8c#/ 8e/	16c#/LL
.	.	16a/JJ
8AA/J	8G/ 8c#/ 8e/J	16a/LL
.	.	16c#/JJ
=4	=4	=4
4D\	4F#/ 4A/ 4d/	8d/
.	.	8r
8r	8r	16c#/LL
.	.	16d/JJ
=5	=5	=5
8AAA/L	8r	8e/
8AA/	8A/ 8c#/ 8e/L	8e/
8AA/J	8A/ 8c#/ 8e/J	16f#/LL
.	.	16g#/JJ
=6	=6	=6
8AAA/L	8r	8a/
8AA/	8A/ 8c#/ 8e/L	8a/
8AA/J	8A/ 8c#/ 8e/J	16b\LL
.	.	16cc#\JJ
=7	=7	=7
8EE/L	8r	16ee\LL
.	.	16dd\JJ
8E/	8B/ 8d/ 8g#/L	16cc#\LL
.	.	16b\JJ
8E/J	8B/ 8d/ 8g#/J	16a/LL
.	.	16g#/JJ
=8	=8	=8
4.AA;/	4.A;/ 4.c#;/ 4.a;/	4.a;/
=9	=9	=9
(16DD/LL	8r	16f#/LL
16D/	.	16gn/JJ
16AA/	8F#/ 8A/ 8d/ 8f#/L	16a/
16D/	.	16b\
16AA/	8F#/ 8A/ 8d/ 8f#/J	8a/
16D/JJ)	.	.
=10	=10	=10
(16DD/LL	8r	16a\LL
16D/	.	16dd\JJ
16AA/	8F#/ 8A/ 8d/ 8f#/L	16f#/
16D/	.	16b\
16AA/	8F#/ 8A/ 8d/ 8f#/J	8a/
16D/JJ)	.	.
=11	=11	=11
(16AA\LL	8r	16a/LL
16G\	.	16g/JJ
16E\	8A/ 8c#/ 8e/L	(16g/
16G\	.	16f#/)
16AA\	8A/ 8c#/ 8e/J	16g/LL
16G\JJ)	.	16b/JJ
=12	=12	=12
(16DD/LL	8r	16b/LL
16D/	.	16a/JJ
16AA/	8F#/ 8A/ 8d/ 8f#/L	16a/LL
16D/	.	16g/JJ
16DD/	8F#/ 8A/ 8d/ 8f#/J	8f#/
16D/JJ)	.	.
=13	=13	=13
(16DD/LL	8r	16d/
16D/	.	16e/
16AA/	8F#/ 8A/ 8d/ 8f#/L	16f#/LL
16D/	.	16g/JJ
16DD/	8F#/ 8A/ 8d/ 8f#/J	16a/LL
16D/JJ	.	16b/JJ
=14	=14	=14
(16AA\LL)	8r	16a/LL
16G\	.	16g/JJ
16E\	8A/ 8c#/ 8e/L	16g/LL
16G\	.	16f#/JJ
16C#\	8A/ 8e/J	8e/
16G\JJ)	.	.
=15	=15	=15
(16DD/LL	8r	(16d/
16D/	.	16e/)
16AA/	8F#/ 8A/ 8d/ 8f#/L	16f#/LL
16D/	.	16g/JJ
16DD/	8F#/ 8A/ 8d/ 8f#/J	16a/LL
16D/JJ)	.	16b/JJ
=16	=16	=16
(16AA\LL	8r	16a/LL
16G\	.	16g/JJ
16E\	8A/ 8c#/ 8e/L	16g/LL
16G\	.	16f#/JJ
[16AA\	[8A/ [8c#/ [8e/J	[8e/
16AA\_ [16G\JJ)	.	.
=17	=17	=17
4AA;\] 4G;\]	4A;/] 4c#;/] 4e;/]	4e;/]
8r	8r	16f#/LL
.	.	16g/JJ
=18	=18	=18
8DD/ 8D/L	8F#/ 8A/ 8d/ 8f#/L	8a/
8DD/ 8D/	8F#/ 8A/ 8d/ 8f#/	8f#/
8DD/ 8D/J	8F#/ 8A/ 8d/ 8f#/J	16f#\LL
.	.	16ff#\JJ
=19	=19	=19
4DD;/ 4D;/	4F#;/ 4A;/ 4d;/ 4f#;/	4dd;\
8r	8r	16f#/LL
.	.	16b/JJ
=20	=20	=20
8AA/L	8G/ 8c#/ 8e/L	16b/LL
.	.	16c#/JJ
8AA/	8G/ 8c#/ 8e/	16c#/LL
.	.	16a/JJ
8AA/J	8G/ 8c#/ 8e/J	16a/LL
.	.	16c#/JJ
=21	=21	=21
8DD/	8F#/ 8A/ 8d/	8d/
8r	8r	8r
=	=	=
*-	*-	*-
!!!ENC: Craig Stuart Sapp
!!!END: 2004/05/26/
!!!EFL: 076/651
